!!!COM: Beethoven
!!!OTL: 24 Variationen uber Venni Amore von V. Righini
!!!Variation: Variation 2 a
**kern
*clefG2
*k[f#c#]
*M2/4
*D:
=33
8ff#'L
(32ff#LK
16aa'JJ)
32r
8ee'L
(32eeLK
16aa'JJ)
32r
=34
8dd'L
(32ddLK
16ddd'JJ)
32r
8cc'L
(32ccLK
16ccc'JJ)
32r
=35
8b'L
(32bLK
16bb'JJ)
32r
8cc#'L
(32cc#LK
16ccc#'JJ)
32r
=36
8dd'L
(32ddLK
16ddd'JJ)
32r
8a'L
(32aLK
16aa'JJ)
32r
=37
8f#'L
(32f#LK
16ff#'JJ)
32r
8ff#'L
(32ff#LK
16bb'JJ)
32r
=38
8e'L
(32eLK
16ee'JJ)
32r
8ee'L
(32eeLK
16aa'JJ)
32r
=39
8d'L
(32dLK
16dd'JJ)
32r
8dd'L
(32ddLK
16ddd'JJ)
32r
=40
8a'L
(32aLK
16aa'JJ)
32r
4r
.
=41
8A'L
(32ALK
16e'JJ)
32r
8e'L
(32eLK
16a'JJ)
32r
=42
8a'L
(32aLK
16dd'JJ)
32r
8dd'L
(32ddLK
16ff#'JJ)
32r
=43
8ff#'L
(32ff#LK
16gg'JJ)
32r
8gg'L
(32ggLK
16ccc#'JJ)
32r
=44
8ccc#'L
(32ccc#LK
16ddd'JJ)
32r
8ddd'L
(32dddLK
16aa'JJ)
32r
=45
8aa'L
(32aaLK
16ee'JJ)
32r
8ee'L
(32eeLK
16a'JJ)
32r
=46
8a'L
(32aLK
16dd'JJ)
32r
8dd'L
(32ddLK
16d'JJ)
32r
=47
8d'L
(32dLK
16a'JJ)
32r
8a'L
(32aLK
16A'JJ)
32r
=48
8A'L
(32ALK
16d'JJ)
32r
4r
.
*-
